Layouts/MINIMAL/dist/assets/images/socials/email.svg

<svg width="14" height="14" viewBox="0 0 14 14" fill="none" xmlns="http://www.w3.org/2000/svg">
<path d="M6.63106 10.2562L4.40753 8.18007C4.23212 8.01619 3.948 8.01619 3.77259 8.18007L0 11.6949V12.1734C0 12.6197 0.391176 12.9829 0.868823 12.9829H13.0282C13.5059 12.9829 13.8971 12.6197 13.8971 12.1734V11.6949L10.1245 8.17843C9.94823 8.01619 9.66329 8.01619 9.48953 8.17843L7.266 10.2545C7.09059 10.4193 6.80647 10.4193 6.63106 10.2562ZM11.3573 7.0296L13.58 9.10572C13.7546 9.2696 13.8971 9.20702 13.8971 8.96737V4.50055C13.8971 4.26007 13.7546 4.19831 13.58 4.36219L11.3573 6.43831C11.1811 6.60137 11.1811 6.86572 11.3573 7.0296ZM0.868823 0.823486C0.391176 0.823486 0 1.18831 0 1.63384V1.7796L6.59729 7.95937C6.77188 8.12325 7.05518 8.12325 7.22976 7.95937L13.8971 1.70631V1.63384C13.8971 1.18831 13.5059 0.823486 13.0282 0.823486H0.868823ZM0 4.50055V8.96737C0 9.20702 0.142471 9.2696 0.317059 9.10572L2.53976 7.0296C2.716 6.86572 2.716 6.60137 2.53976 6.43749L0.317059 4.36219C0.142471 4.19831 0 4.26007 0 4.50055Z" fill="black"/>
</svg>

<svg width="14" height="14" fill="none" xmlns="http://www.w3.org/2000/svg"><path d="M6.631 10.256 4.408 8.18a.471.471 0 0 0-.635 0L0 11.695v.478c0 .447.391.81.869.81h12.16c.477 0 .868-.363.868-.81v-.478l-3.773-3.517a.475.475 0 0 0-.634 0l-2.224 2.076a.471.471 0 0 1-.635.002Zm4.726-3.226 2.223 2.076c.175.164.317.101.317-.139V4.501c0-.24-.142-.303-.317-.139l-2.223 2.076a.397.397 0 0 0 0 .592ZM.87.823c-.48 0-.87.365-.87.81v.147l6.597 6.18a.468.468 0 0 0 .633 0l6.667-6.254v-.072c0-.446-.391-.81-.869-.81H.868ZM0 4.501v4.466c0 .24.142.303.317.139L2.54 7.03a.398.398 0 0 0 0-.593L.317 4.362C.142 4.198 0 4.26 0 4.501Z" fill="#000"/></svg>
